svg/u1f5e1.svg

<svg viewBox="0 0 128 128" xmlns="http://www.w3.org/2000/svg">
  <g>
    <g>
      <path d="M105.41,9.81l0.24,2.59c1.24-0.13,3.52,0.28,6.73,3.5c3.22,3.22,3.63,5.49,3.5,6.73l2.59,0.24 c3.06,0.28,5.83-2.44,5.5-5.49c-0.31-2.87-1.8-6.08-4.4-8.68c-2.6-2.59-5.8-4.09-8.68-4.4C107.85,3.98,105.13,6.75,105.41,9.81z" fill="#9E740B"/>
      <path d="M87.47,40.81l-7.4-7.4l25.48-21.68c0,0,2.84-2.05,7.94,3.05c5.1,5.1,3.05,7.94,3.05,7.94 L94.87,48.2L87.47,40.81z" fill="#693928"/>
    </g>
    <g>
      <path d="M28.09,112.28C18.94,121.12,4,123.72,4,123.72l80.48-80.48l8.56,8.56L28.09,112.28z" fill="#82AEC0"/>
      <path d="M15.44,99.63C6.61,108.79,4,123.72,4,123.72l80.48-80.48l-8.56-8.56L15.44,99.63z" fill="#C9E3E6"/>
    </g>
    <path d="M59.47,20.63l14.76,18.05c0,0,1.61,2.1,1.66,3.83c0.08,2.72,0.22,4.54,2.56,6.87 c2.34,2.34,5.33,2.47,6.93,2.41s3.65,1.68,3.65,1.68l18.05,14.76c0.96,0.81,2.43,0.66,3.19-0.4c0.62-0.86,0.45-2.06-0.26-2.85 c-3.98-4.43-15.2-17.11-15.2-17.11s-1.71-2.15-1.75-3.93c-0.04-1.79,0.13-4.14-2.52-6.78s-4.57-2.41-6.96-2.5 c-2.02-0.08-3.75-1.77-3.75-1.77s-12.68-11.23-17.12-15.2c-0.79-0.71-1.99-0.88-2.85-0.26C58.81,18.2,58.66,19.67,59.47,20.63z" fill="#9E740B"/>
    <path d="M84.63,43.29L59.34,18c-0.54,0.8-0.51,1.87,0.13,2.63l14.76,18.05c0,0,1.61,2.1,1.66,3.83 c0.04,1.55,0.11,2.81,0.59,4.04c0.64,1.63,2.8,2.01,4.05,0.78C82.34,45.56,84.63,43.29,84.63,43.29z" fill="#E2A610"/>
    <circle cx="84.48" cy="43.24" r="3.99" fill="#1E4EA6"/>
    <path d="M83.82,42.15c-0.3,0.48-0.46,0.93-0.37,1.47c0.03,0.43,0.29,0.9-0.01,1.3 c-0.38,0.52-1.21,0.4-1.61-0.07c-0.57-0.69-0.6-1.54-0.49-2.24c0.19-1.21,0.82-2.12,1.91-2.02 C84.04,40.66,84.26,41.56,83.82,42.15z" fill="#42A5F5"/>
    <g>
      <path d="M93.62,34.1c1.72,1.72,3.15,3.49,4.23,5.14c0.19-0.11,0.36-0.24,0.52-0.4 c1.67-1.67,0.9-5.15-1.72-7.77s-6.1-3.39-7.77-1.72c-0.16,0.16-0.28,0.33-0.4,0.52C90.13,30.95,91.9,32.38,93.62,34.1z" fill="#A65F3E"/>
      <path d="M98.69,29.04c1.53,1.53,2.79,3.1,3.72,4.58c0.17-0.11,0.34-0.23,0.48-0.37 c1.55-1.55,0.93-4.7-1.39-7.02s-5.46-2.94-7.02-1.39c-0.15,0.15-0.27,0.31-0.37,0.48C95.58,26.25,97.16,27.51,98.69,29.04z" fill="#A65F3E"/>
      <path d="M103.75,23.97c1.33,1.33,2.42,2.71,3.22,4.01c0.16-0.1,0.31-0.21,0.44-0.35 c1.44-1.44,0.96-4.24-1.06-6.27s-4.83-2.5-6.27-1.06c-0.13,0.13-0.25,0.28-0.35,0.44C101.04,21.55,102.42,22.64,103.75,23.97z" fill="#A65F3E"/>
      <path d="M108.81,18.91c1.13,1.13,2.05,2.32,2.72,3.45c0.14-0.09,0.28-0.2,0.4-0.32 c1.32-1.32,0.99-3.79-0.73-5.51s-4.19-2.05-5.51-0.73c-0.12,0.12-0.23,0.26-0.32,0.4C106.49,16.86,107.68,17.78,108.81,18.91z" fill="#A65F3E"/>
    </g>
    <path d="M113.54,11.74c-1.12-0.99-2.39-1.48-3.3-1.7c-0.75-0.18-1.32-0.8-1.47-1.56l0-0.01 c-0.28-1.43,1.02-2.67,2.44-2.33c1.59,0.39,3.46,1.22,5.07,2.67c0.93,0.84,0.79,2.34-0.23,3.07l0,0 C115.29,12.44,114.25,12.36,113.54,11.74z" fill="#E2A610"/>
    <path d="M23.31,70.37c-0.95-0.72-1.92-1.09-2.88-1.36c-0.42-0.11-0.84-0.18-1.27-0.24 c-0.06-0.43-0.14-0.85-0.25-1.27c-0.28-0.95-0.64-1.92-1.36-2.88c-0.72,0.95-1.09,1.92-1.36,2.88c-0.11,0.42-0.18,0.85-0.24,1.28 c-0.42,0.06-0.85,0.14-1.27,0.25c-0.95,0.26-1.92,0.62-2.88,1.35c0.95,0.72,1.92,1.09,2.88,1.35c0.42,0.12,0.85,0.19,1.28,0.26 c0.06,0.43,0.14,0.85,0.25,1.27c0.26,0.95,0.62,1.92,1.35,2.88c0.72-0.95,1.09-1.92,1.35-2.88c0.12-0.42,0.19-0.84,0.25-1.26 c0.43-0.06,0.85-0.14,1.28-0.25C21.38,71.45,22.35,71.09,23.31,70.37z" opacity="0.6" fill="#FFFFFF"/>
    <path d="M51.44,101.06c0.52-0.07,1.04-0.23,1.57-0.6c-0.53-0.38-1.05-0.53-1.57-0.6 c-0.07-0.52-0.23-1.04-0.6-1.57c-0.38,0.53-0.53,1.05-0.6,1.57c-0.52,0.07-1.04,0.23-1.57,0.6c0.52,0.37,1.04,0.53,1.57,0.6 c0.07,0.52,0.23,1.04,0.6,1.57C51.21,102.11,51.37,101.59,51.44,101.06z" opacity="0.6" fill="#FFFFFF"/>
    <path d="M18.15,89.67c0.52-0.07,1.04-0.23,1.57-0.6c-0.53-0.38-1.05-0.53-1.57-0.6 c-0.07-0.52-0.23-1.04-0.6-1.57c-0.38,0.53-0.53,1.05-0.6,1.57c-0.52,0.07-1.04,0.23-1.57,0.6c0.53,0.37,1.05,0.53,1.57,0.6 c0.07,0.52,0.23,1.04,0.6,1.57C17.92,90.71,18.08,90.19,18.15,89.67z" fill="#FFFFFF"/>
    <path d="M79.55,97.54c-1.03-0.77-2.05-1.16-3.08-1.45c-0.45-0.12-0.91-0.2-1.36-0.27 c-0.06-0.45-0.15-0.91-0.27-1.36c-0.29-1.03-0.68-2.05-1.45-3.08c-0.77,1.03-1.16,2.05-1.45,3.08c-0.12,0.45-0.2,0.91-0.27,1.36 c-0.45,0.06-0.91,0.15-1.36,0.27c-1.03,0.29-2.05,0.68-3.08,1.45c1.03,0.77,2.05,1.16,3.08,1.45c0.45,0.12,0.91,0.2,1.36,0.27 c0.06,0.45,0.15,0.91,0.27,1.36c0.29,1.03,0.68,2.05,1.45,3.08c0.77-1.03,1.16-2.05,1.45-3.08c0.12-0.45,0.2-0.91,0.27-1.36 c0.45-0.06,0.91-0.15,1.36-0.27C77.49,98.71,78.52,98.31,79.55,97.54z" fill="#FFFFFF"/>
    <path d="M90.01,75.55c-0.92-0.69-1.84-1.04-2.76-1.3c-0.41-0.11-0.81-0.18-1.22-0.24 c-0.06-0.41-0.13-0.81-0.24-1.22c-0.26-0.92-0.61-1.84-1.3-2.76c-0.69,0.92-1.04,1.84-1.3,2.76c-0.11,0.41-0.18,0.81-0.24,1.22 c-0.41,0.06-0.81,0.13-1.22,0.24c-0.92,0.26-1.84,0.61-2.76,1.3c0.92,0.69,1.84,1.04,2.76,1.3c0.41,0.11,0.81,0.18,1.22,0.24 c0.06,0.41,0.13,0.81,0.24,1.22c0.26,0.92,0.61,1.84,1.3,2.76c0.69-0.92,1.04-1.84,1.3-2.76c0.11-0.41,0.18-0.81,0.24-1.22 c0.41-0.06,0.81-0.13,1.22-0.24C88.17,76.59,89.09,76.24,90.01,75.55z" opacity="0.6" fill="#FFFFFF"/>
    <path d="M41.56,60.68c-0.64-0.48-1.26-0.71-1.89-0.9c-0.28-0.07-0.57-0.12-0.85-0.16 c-0.04-0.28-0.09-0.56-0.16-0.84c-0.18-0.64-0.42-1.26-0.9-1.89c-0.48,0.64-0.71,1.26-0.9,1.89c-0.07,0.28-0.12,0.57-0.16,0.85 c-0.27,0.04-0.55,0.09-0.83,0.16c-0.64,0.18-1.26,0.41-1.89,0.88c0.64,0.48,1.26,0.71,1.89,0.88c0.28,0.07,0.56,0.13,0.83,0.17 c0.04,0.28,0.09,0.56,0.16,0.84c0.18,0.64,0.41,1.26,0.88,1.89c0.48-0.64,0.71-1.26,0.88-1.89c0.07-0.28,0.13-0.56,0.17-0.83 c0.28-0.04,0.57-0.09,0.85-0.17C40.3,61.39,40.93,61.15,41.56,60.68z" fill="#FFFFFF"/>
    <path d="M47.15,113.56c-0.64-0.48-1.26-0.71-1.89-0.9c-0.28-0.07-0.56-0.12-0.85-0.16 c-0.04-0.28-0.09-0.56-0.16-0.85c-0.18-0.64-0.42-1.26-0.9-1.89c-0.48,0.64-0.71,1.26-0.9,1.89c-0.07,0.29-0.12,0.57-0.16,0.86 c-0.27,0.04-0.55,0.09-0.82,0.16c-0.64,0.18-1.26,0.41-1.89,0.88c0.64,0.47,1.26,0.7,1.89,0.88c0.28,0.08,0.56,0.13,0.84,0.17 c0.04,0.28,0.09,0.55,0.16,0.83c0.18,0.64,0.41,1.26,0.88,1.89c0.48-0.64,0.71-1.26,0.88-1.89c0.07-0.28,0.12-0.55,0.16-0.82 c0.28-0.04,0.57-0.09,0.86-0.17C45.89,114.28,46.52,114.04,47.15,113.56z" fill="#FFFFFF"/>
    <path d="M31.72,76.15c0.52-0.07,1.04-0.23,1.57-0.6c-0.53-0.38-1.05-0.53-1.57-0.6 c-0.07-0.52-0.23-1.04-0.6-1.57c-0.38,0.53-0.53,1.05-0.6,1.57c-0.52,0.07-1.04,0.23-1.57,0.6c0.53,0.37,1.05,0.53,1.57,0.6 c0.07,0.52,0.23,1.04,0.6,1.57C31.49,77.2,31.65,76.68,31.72,76.15z" fill="#FFFFFF"/>
  </g>
</svg>

<svg viewBox="0 0 128 128" xmlns="http://www.w3.org/2000/svg">
  <defs/>
  <path d="M105.41,9.81 L105.65,12.4 C106.89,12.27 109.17,12.68 112.38,15.9 C115.6,19.12 116.01,21.39 115.88,22.63 L118.47,22.87 C121.53,23.15 124.3,20.43 123.97,17.38 C123.66,14.51 122.17,11.3 119.57,8.7 C116.97,6.11 113.77,4.61 110.89,4.3 C107.85,3.98 105.13,6.75 105.41,9.81 Z" fill="#9E740B"/>
  <path d="M87.47,40.81 L80.07,33.41 L105.55,11.73 C105.55,11.73 108.39,9.68 113.49,14.78 C118.59,19.88 116.54,22.72 116.54,22.72 L94.87,48.2 L87.47,40.81 Z" fill="#693928"/>
  <path d="M28.09,112.28 C18.94,121.12 4,123.72 4,123.72 L84.48,43.24 L93.04,51.8 L28.09,112.28 Z" fill="#82AEC0"/>
  <path d="M15.44,99.63 C6.61,108.79 4,123.72 4,123.72 L84.48,43.24 L75.92,34.68 L15.44,99.63 Z" fill="#C9E3E6"/>
  <path d="M59.47,20.63 L74.23,38.68 C74.23,38.68 75.84,40.78 75.89,42.51 C75.97,45.23 76.11,47.05 78.45,49.38 C80.79,51.72 83.78,51.85 85.38,51.79 C86.98,51.73 89.03,53.47 89.03,53.47 L107.08,68.23 C108.04,69.04 109.51,68.89 110.27,67.83 C110.89,66.97 110.72,65.77 110.01,64.98 C106.03,60.55 94.81,47.87 94.81,47.87 C94.81,47.87 93.1,45.72 93.06,43.94 C93.02,42.15 93.19,39.8 90.54,37.16 C87.89,34.52 85.97,34.75 83.58,34.66 C81.56,34.58 79.83,32.89 79.83,32.89 C79.83,32.89 67.15,21.66 62.71,17.69 C61.92,16.98 60.72,16.81 59.86,17.43 C58.81,18.2 58.66,19.67 59.47,20.63 Z" fill="#9E740B"/>
  <path d="M84.63,43.29 L59.34,18 C58.8,18.8 58.83,19.87 59.47,20.63 L74.23,38.68 C74.23,38.68 75.84,40.78 75.89,42.51 C75.93,44.06 76,45.32 76.48,46.55 C77.12,48.18 79.28,48.56 80.53,47.33 C82.34,45.56 84.63,43.29 84.63,43.29 Z" fill="#E2A610"/>
  <path d="M88.47,43.24 A3.99 3.99 0 1 1 80.49,43.24 A3.99 3.99 0 1 1 88.47,43.24 Z" fill="#1E4EA6"/>
  <path d="M83.82,42.15 C83.52,42.63 83.36,43.08 83.45,43.62 C83.48,44.05 83.74,44.52 83.44,44.92 C83.06,45.44 82.23,45.32 81.83,44.85 C81.26,44.16 81.23,43.31 81.34,42.61 C81.53,41.4 82.16,40.49 83.25,40.59 C84.04,40.66 84.26,41.56 83.82,42.15 Z" fill="#42A5F5"/>
  <path d="M93.62,34.1 C95.34,35.82 96.77,37.59 97.85,39.24 C98.04,39.13 98.21,39 98.37,38.84 C100.04,37.17 99.27,33.69 96.65,31.07 C94.03,28.45 90.55,27.68 88.88,29.35 C88.72,29.51 88.6,29.68 88.48,29.87 C90.13,30.95 91.9,32.38 93.62,34.1 Z" fill="#A65F3E"/>
  <path d="M98.69,29.04 C100.22,30.57 101.48,32.14 102.41,33.62 C102.58,33.51 102.75,33.39 102.89,33.25 C104.44,31.7 103.82,28.55 101.5,26.23 C99.18,23.91 96.04,23.29 94.48,24.84 C94.33,24.99 94.21,25.15 94.11,25.32 C95.58,26.25 97.16,27.51 98.69,29.04 Z" fill="#A65F3E"/>
  <path d="M103.75,23.97 C105.08,25.3 106.17,26.68 106.97,27.98 C107.13,27.88 107.28,27.77 107.41,27.63 C108.85,26.19 108.37,23.39 106.35,21.36 C104.33,19.33 101.52,18.86 100.08,20.3 C99.95,20.43 99.83,20.58 99.73,20.74 C101.04,21.55 102.42,22.64 103.75,23.97 Z" fill="#A65F3E"/>
  <path d="M108.81,18.91 C109.94,20.04 110.86,21.23 111.53,22.36 C111.67,22.27 111.81,22.16 111.93,22.04 C113.25,20.72 112.92,18.25 111.2,16.53 C109.48,14.81 107.01,14.48 105.69,15.8 C105.57,15.92 105.46,16.06 105.37,16.2 C106.49,16.86 107.68,17.78 108.81,18.91 Z" fill="#A65F3E"/>
  <path d="M113.54,11.74 C112.42,10.75 111.15,10.26 110.24,10.04 C109.49,9.86 108.92,9.24 108.77,8.48 L108.77,8.47 C108.49,7.04 109.79,5.8 111.21,6.14 C112.8,6.53 114.67,7.36 116.28,8.81 C117.21,9.65 117.07,11.15 116.05,11.88 L116.05,11.88 C115.29,12.44 114.25,12.36 113.54,11.74 Z" fill="#E2A610"/>
  <path d="M23.31,70.37 C22.36,69.65 21.39,69.28 20.43,69.01 C20.01,68.9 19.59,68.83 19.16,68.77 C19.1,68.34 19.02,67.92 18.91,67.5 C18.63,66.55 18.27,65.58 17.55,64.62 C16.83,65.57 16.46,66.54 16.19,67.5 C16.08,67.92 16.01,68.35 15.95,68.78 C15.53,68.84 15.1,68.92 14.68,69.03 C13.73,69.29 12.76,69.65 11.8,70.38 C12.75,71.1 13.72,71.47 14.68,71.73 C15.1,71.85 15.53,71.92 15.96,71.99 C16.02,72.42 16.1,72.84 16.21,73.26 C16.47,74.21 16.83,75.18 17.56,76.14 C18.28,75.19 18.65,74.22 18.91,73.26 C19.03,72.84 19.1,72.42 19.16,72 C19.59,71.94 20.01,71.86 20.44,71.75 C21.38,71.45 22.35,71.09 23.31,70.37 Z" fill="#FFFFFF" opacity="0.6"/>
  <path d="M51.44,101.06 C51.96,100.99 52.48,100.83 53.01,100.46 C52.48,100.08 51.96,99.93 51.44,99.86 C51.37,99.34 51.21,98.82 50.84,98.29 C50.46,98.82 50.31,99.34 50.24,99.86 C49.72,99.93 49.2,100.09 48.67,100.46 C49.19,100.83 49.71,100.99 50.24,101.06 C50.31,101.58 50.47,102.1 50.84,102.63 C51.21,102.11 51.37,101.59 51.44,101.06 Z" fill="#FFFFFF" opacity="0.6"/>
  <path d="M18.15,89.67 C18.67,89.6 19.19,89.44 19.72,89.07 C19.19,88.69 18.67,88.54 18.15,88.47 C18.08,87.95 17.92,87.43 17.55,86.9 C17.17,87.43 17.02,87.95 16.95,88.47 C16.43,88.54 15.91,88.7 15.38,89.07 C15.91,89.44 16.43,89.6 16.95,89.67 C17.02,90.19 17.18,90.71 17.55,91.24 C17.92,90.71 18.08,90.19 18.15,89.67 Z" fill="#FFFFFF"/>
  <path d="M79.55,97.54 C78.52,96.77 77.5,96.38 76.47,96.09 C76.02,95.97 75.56,95.89 75.11,95.82 C75.05,95.37 74.96,94.91 74.84,94.46 C74.55,93.43 74.16,92.41 73.39,91.38 C72.62,92.41 72.23,93.43 71.94,94.46 C71.82,94.91 71.74,95.37 71.67,95.82 C71.22,95.88 70.76,95.97 70.31,96.09 C69.28,96.38 68.26,96.77 67.23,97.54 C68.26,98.31 69.28,98.7 70.31,98.99 C70.76,99.11 71.22,99.19 71.67,99.26 C71.73,99.71 71.82,100.17 71.94,100.62 C72.23,101.65 72.62,102.67 73.39,103.7 C74.16,102.67 74.55,101.65 74.84,100.62 C74.96,100.17 75.04,99.71 75.11,99.26 C75.56,99.2 76.02,99.11 76.47,98.99 C77.49,98.71 78.52,98.31 79.55,97.54 Z" fill="#FFFFFF"/>
  <path d="M90.01,75.55 C89.09,74.86 88.17,74.51 87.25,74.25 C86.84,74.14 86.44,74.07 86.03,74.01 C85.97,73.6 85.9,73.2 85.79,72.79 C85.53,71.87 85.18,70.95 84.49,70.03 C83.8,70.95 83.45,71.87 83.19,72.79 C83.08,73.2 83.01,73.6 82.95,74.01 C82.54,74.07 82.14,74.14 81.73,74.25 C80.81,74.51 79.89,74.86 78.97,75.55 C79.89,76.24 80.81,76.59 81.73,76.85 C82.14,76.96 82.54,77.03 82.95,77.09 C83.01,77.5 83.08,77.9 83.19,78.31 C83.45,79.23 83.8,80.15 84.49,81.07 C85.18,80.15 85.53,79.23 85.79,78.31 C85.9,77.9 85.97,77.5 86.03,77.09 C86.44,77.03 86.84,76.96 87.25,76.85 C88.17,76.59 89.09,76.24 90.01,75.55 Z" fill="#FFFFFF" opacity="0.6"/>
  <path d="M41.56,60.68 C40.92,60.2 40.3,59.97 39.67,59.78 C39.39,59.71 39.1,59.66 38.82,59.62 C38.78,59.34 38.73,59.06 38.66,58.78 C38.48,58.14 38.24,57.52 37.76,56.89 C37.28,57.53 37.05,58.15 36.86,58.78 C36.79,59.06 36.74,59.35 36.7,59.63 C36.43,59.67 36.15,59.72 35.87,59.79 C35.23,59.97 34.61,60.2 33.98,60.67 C34.62,61.15 35.24,61.38 35.87,61.55 C36.15,61.62 36.43,61.68 36.7,61.72 C36.74,62 36.79,62.28 36.86,62.56 C37.04,63.2 37.27,63.82 37.74,64.45 C38.22,63.81 38.45,63.19 38.62,62.56 C38.69,62.28 38.75,62 38.79,61.73 C39.07,61.69 39.36,61.64 39.64,61.56 C40.3,61.39 40.93,61.15 41.56,60.68 Z" fill="#FFFFFF"/>
  <path d="M47.15,113.56 C46.51,113.08 45.89,112.85 45.26,112.66 C44.98,112.59 44.7,112.54 44.41,112.5 C44.37,112.22 44.32,111.94 44.25,111.65 C44.07,111.01 43.83,110.39 43.35,109.76 C42.87,110.4 42.64,111.02 42.45,111.65 C42.38,111.94 42.33,112.22 42.29,112.51 C42.02,112.55 41.74,112.6 41.47,112.67 C40.83,112.85 40.21,113.08 39.58,113.55 C40.22,114.02 40.84,114.25 41.47,114.43 C41.75,114.51 42.03,114.56 42.31,114.6 C42.35,114.88 42.4,115.15 42.47,115.43 C42.65,116.07 42.88,116.69 43.35,117.32 C43.83,116.68 44.06,116.06 44.23,115.43 C44.3,115.15 44.35,114.88 44.39,114.61 C44.67,114.57 44.96,114.52 45.25,114.44 C45.89,114.28 46.52,114.04 47.15,113.56 Z" fill="#FFFFFF"/>
  <path d="M31.72,76.15 C32.24,76.08 32.76,75.92 33.29,75.55 C32.76,75.17 32.24,75.02 31.72,74.95 C31.65,74.43 31.49,73.91 31.12,73.38 C30.74,73.91 30.59,74.43 30.52,74.95 C30,75.02 29.48,75.18 28.95,75.55 C29.48,75.92 30,76.08 30.52,76.15 C30.59,76.67 30.75,77.19 31.12,77.72 C31.49,77.2 31.65,76.68 31.72,76.15 Z" fill="#FFFFFF"/>
</svg>
